!!!OTL: Bakkha
!! From Sam-Ang Sam & Patricia Shehan Campbell,
!! "Silent Temples, Songful Hearts: Traditional Music of Cambodia"
!! Danbury CT: World Music Press, 1991
!! page XX
!! Genre: Etiquette songs for small children.
**kern	**silbe	**recip
*clefG2	*LKhmer	*
*k[]	*	*
*	*	*ICidio
*	*	*Ichhing
!	!	! Chhing drum
!	!	! + = fingers?
!	!	! 0 = palm?
*M4/4	*	*M4/4
=1-	=1-	=1-
2r	.	4+
.	.	4+
4r	.	4+
(8b	Preah	4+
8a)	|	.
=2	=2	=2
(8g	pe-	4o
8a	|	.
8g	-ay	4o
8e	|	.
8d	|	8o
8B)	|	8o
(8d	phay	8o
8e)	|	8o
=3	=3	=3
4g	phatt	4+
4d	|	4+
8d	|	4+
8e	|	.
8f#	|	4+
8a	|	.
=4	=4	=4
8e	|	4o
8f#	|	.
8e	|	4o
8d	|	.
(8B	bo-	8o
8d)	|	8o
(8A	-pha	8o
8B)	|	8o
=5	=5	=5
2.d	phall	4+
.	.	4+
.	.	4+
8b	preah	4+
8a	|	.
=6	=6	=6
(8g	pe-	4o
8a	|	.
8g	-ay	4o
8e	|	.
8d	|	8o
8B)	|	8o
(8d	phay	8o
8e)	|	8o
=7	=7	=7
4g	phatt	4+
4d	|	4+
(8d	|	4+
8e	|	.
8f#	|	4+
8a)	|	.
=8	=8	=8
8e	|	4o
8f#	|	.
8e	|	4o
8d	|	.
(8B	bo-	8o
8d)	|	8o
(8A	-pha	8o
8B)	|	8o
=9	=9	=9
2d	phall	4+
.	.	4+
[4g	pi-	4+
8g]	|	4+
8a	|	.
=10	=10	=10
4b	-dor	4o
8b	|	4o
8a	|	.
4G	dett	8o
.	.	8o
8a	|	8o
8b	|	8o
=11	=11	=11
8b	dall	4+
8a	|	.
8g	|	4+
8a	|	.
4b	|	4+
4d	|	4+
=12	=12	=12
(8e	duong	4o
8g	|	.
8a	|	4o
8g)	|	.
(4d	ha-	8o
.	.	8o
8e)	|	8o
8g	-roeu-	8o
=13	=13	=13
2.g	-tey.	4+
.	.	2.r
==	==	==
*-	*-	*-
